X: 26950
T: Miss Campbell's Quadrille
R: slide
M: 12/8
K: Dmajor
|:B|AFB A2F|D3 D2B|AFA d2e|f3 f2a|gfg B2d|
c3 c2B|1 Ace a2e|f3 f2:|2 Ace aec|d3 d2||
|:g|fed cBA|f3 f2g|fed cBA|F3 FGF
EFE EFG|e2e e2d|cBA ABc|d3 d2:|
|:FAA BAA|FAA dAA|BAB gfg|B3 B2A|
FAA BAA|FAA d2f|gfg B2c|1 d3 d3:|2 d3 d2||

